img/recomend.svg

<svg width="21" height="21" viewBox="0 0 21 21" fill="none" xmlns="http://www.w3.org/2000/svg">
<circle cx="10.5" cy="10.5" r="10.5" fill="#FFB438"/>
<path d="M7.80714 15.1397C7.80714 15.5752 7.44045 15.9257 7.00905 15.9257H4.7981C4.35591 15.9257 4 15.5752 4 15.1397V8.96895C4 8.5335 4.35591 8.18301 4.7981 8.18301H6.99826C7.44045 8.18301 7.79636 8.5335 7.79636 8.96895L7.80714 15.1397ZM17.1686 10.2966C17.6432 10.6683 17.7187 11.348 17.3412 11.8154C17.1902 12.0065 16.9745 12.134 16.7372 12.1871C17.2118 12.5588 17.2873 13.2386 16.9098 13.6953C16.7588 13.8864 16.5431 14.0139 16.295 14.0776C16.7696 14.4493 16.8451 15.1291 16.4568 15.5964C16.2519 15.8513 15.9391 16 15.6048 16L9.40334 15.9363C8.96115 15.9363 8.60524 15.5858 8.60524 15.1503V8.96895C8.60524 7.99183 11.7761 6.1969 11.9378 5.23039C12.0457 4.59314 11.9055 3 12.3369 3C13.0811 3 14.0194 3.27614 14.0194 4.89052C14.0194 6.31373 13.0703 8.16177 13.0703 8.16177H16.9098C17.5137 8.16177 17.9991 8.63971 17.9991 9.23448C18.0206 9.7549 17.6647 10.1904 17.1686 10.2966Z" fill="white"/>
</svg>

<svg width="21" height="21" fill="none" xmlns="http://www.w3.org/2000/svg"><circle cx="10.5" cy="10.5" r="10.5" fill="#FFB438"/><path d="M7.807 15.14a.797.797 0 01-.798.786H4.8a.79.79 0 01-.8-.786V8.969a.79.79 0 01.798-.786h2.2a.79.79 0 01.798.786l.011 6.17zm9.362-4.843a1.07 1.07 0 01-.432 1.89c.475.372.55 1.052.173 1.508a1.125 1.125 0 01-.615.383c.475.371.55 1.051.162 1.518a1.09 1.09 0 01-.852.404l-6.202-.064a.79.79 0 01-.798-.786V8.97c0-.977 3.171-2.772 3.333-3.739.108-.637-.033-2.23.399-2.23.744 0 1.682.276 1.682 1.89 0 1.424-.949 3.272-.949 3.272h3.84c.604 0 1.09.478 1.09 1.072.02.52-.335.956-.831 1.063z" fill="#fff"/></svg>
